X: 758
T: the Jug of Punch
R: reel
%S: s:3 b:14(4+4+6)
B: Francis O'Neill: "The Dance Music of Ireland" (1907) #758
Z: Frank Nordberg - http://www.musicaviva.com
F: http://www.musicaviva.com/abc/tunes/ireland/oneill-1001/0758/oneill-1001-0758-1.abc
M: C|
L: 1/8
K: D
"^A"\
[| A,DDC DEFG | ABGB ABGA | EA,A,B, CDEF | G2(AG) FDEC ||
|| A,DDE (FD)(DE) | F2(ED) CDE2 | d2(ed) cAGE | FDEC D2D2 |]
"^B"\
|: Adde f2(fd) | e2(ed) cAAB |1 AGAB cBcd | eaag (ed)d2 :|2 =c2(BA) GEAG | FDEC D2D2 |]
